src/svg/56/camera_outline_56.svg

<svg fill="none" height="56" viewBox="0 0 56 56" width="56" xmlns="http://www.w3.org/2000/svg" xmlns:xlink="http://www.w3.org/1999/xlink"><clipPath id="a"><path d="m0 0h56v56h-56z"/></clipPath><g clip-path="url(#a)" clip-rule="evenodd" fill="currentColor" fill-rule="evenodd"><path d="m19.0795 6.65927c.7098-.56766 1.7106-1.15927 2.9205-1.15927h12c1.2099 0 2.2107.59161 2.9205 1.15927.7233.57852 1.3259 1.28068 1.7391 1.77343.0298.03549.2367.29563.5311.66584.2752.34594.6268.78799.9817 1.23266.1287.1613.4777.417 1.0852.6336.577.2057 1.2183.3147 1.7424.3147h1c2.449 0 4.4915 1.2697 5.8723 3.1446 1.3705 1.8607 2.1277 4.349 2.1277 7.0131h-1.5-1.5c0-2.1219-.6067-3.9625-1.5432-5.2341-.9261-1.2574-2.1336-1.9236-3.4568-1.9236h-1c-.8865 0-1.8679-.1745-2.7497-.4889-.8511-.3034-1.7968-.8039-2.4227-1.588-.3782-.4738-.7408-.9298-1.0137-1.273l-.3326-.4182c-.0477-.0599-.0796-.0998-.0986-.1235-.0181-.0227-.0245-.0308-.0218-.0276-.4088-.48739-.8457-.98348-1.3142-1.35818-.4821-.38556-.8255-.50212-1.0467-.50212h-12c-.2212 0-.5646.11656-1.0467.50212-.4685.3747-.9054.87079-1.3142 1.35818.0027-.0032-.0037.0049-.0219.0276-.0189.0238-.0508.0637-.0985.1235l-.3326.4182c-.2729.3432-.6355.7992-1.0137 1.273-.6259.7841-1.5716 1.2846-2.4227 1.588-.8818.3144-1.8632.4889-2.7497.4889h-1c-1.3232 0-2.53071.6662-3.45679 1.9236-.9365 1.2716-1.54321 3.1122-1.54321 5.2341h-1.5-1.5c0-2.6641.7572-5.1524 2.12765-7.0131 1.38088-1.8749 3.42337-3.1446 5.87235-3.1446h1c.5241 0 1.1654-.109 1.7424-.3147.6075-.2166.9565-.4723 1.0852-.6336.3547-.44442.7061-.88621.9812-1.23207.2947-.37052.5018-.63092.5316-.66643.4132-.49274 1.0158-1.19491 1.7391-1.77343zm-2.0795 39.84073.0001-1.5h20.9997c4.7201 0 6.8805-1.0882 8.5047-2.8247.6583-.7037 1.2346-1.6952 1.7276-2.7908.3509-.7797.5559-1.8398.6628-2.9088.1045-1.0449.1051-1.9808.1051-2.4757v-12.5628h1.5 1.5v12.5697c0 .5079 0 1.5678-.1199 2.7674-.1181 1.181-.3631 2.6209-.9122 3.8412-.5535 1.2299-1.2909 2.5598-2.2724 3.6092-2.3532 2.5157-5.4156 3.7753-10.6955 3.7753h-20.9989zm-9.71795-2.2981c-1.01342-1.0512-1.77639-2.3465-2.3066-3.6287-.37355-.9033-.6049-2.3498-.74709-3.5349-.14815-1.2347-.22836-2.456-.22836-3.0383v-12.5628h1.5 1.5v12.5628c0 .4177.06642 1.5092.20699 2.6809.14653 1.2213.34598 2.2748.54077 2.7459.42955 1.0387 1.01808 2.002 1.72463 2.7244l.04647.0475.04208.0514c.66486.8126 1.78776 1.5135 3.19066 2.0113 1.386.4917 2.9162.7386 4.2485.7386l-.0001 1.5v1.5c-1.6677 0-3.5376-.3031-5.2516-.9114-1.6758-.5946-3.33209-1.5276-4.46635-2.8867z"/><path d="m18 28c0-5.5233 4.4767-10 10-10s10 4.4767 10 10-4.4767 10-10 10-10-4.4767-10-10zm10-7c-3.8665 0-7 3.1335-7 7s3.1335 7 7 7 7-3.1335 7-7-3.1335-7-7-7z"/></g></svg>

<svg width="56" height="56" viewBox="0 0 56 56" fill="none" xmlns="http://www.w3.org/2000/svg">
<g clip-path="url(#clip0)">
<path fill-rule="evenodd" clip-rule="evenodd" d="M19.0795 6.65927C19.7893 6.09161 20.7901 5.5 22 5.5H34C35.2099 5.5 36.2107 6.09161 36.9205 6.65927C37.6438 7.23779 38.2464 7.93995 38.6596 8.4327C38.6894 8.46819 38.8963 8.72833 39.1907 9.09854C39.4659 9.44448 39.8175 9.88653 40.1724 10.3312C40.3011 10.4925 40.6501 10.7482 41.2576 10.9648C41.8346 11.1705 42.4759 11.2795 43 11.2795H44C46.449 11.2795 48.4915 12.5492 49.8723 14.4241C51.2428 16.2848 52 18.7731 52 21.4372H50.5H49C49 19.3153 48.3933 17.4747 47.4568 16.2031C46.5307 14.9457 45.3232 14.2795 44 14.2795H43C42.1135 14.2795 41.1321 14.105 40.2503 13.7906C39.3992 13.4872 38.4535 12.9867 37.8276 12.2026C37.4494 11.7288 37.0868 11.2728 36.8139 10.9296L36.4813 10.5114C36.4336 10.4515 36.4017 10.4116 36.3827 10.3879C36.3646 10.3652 36.3582 10.3571 36.3609 10.3603C35.9521 9.87291 35.5152 9.37682 35.0467 9.00212C34.5646 8.61656 34.2212 8.5 34 8.5H22C21.7788 8.5 21.4354 8.61656 20.9533 9.00212C20.4848 9.37682 20.0479 9.87291 19.6391 10.3603C19.6418 10.3571 19.6354 10.3652 19.6172 10.3879C19.5983 10.4117 19.5664 10.4516 19.5187 10.5114L19.1861 10.9296C18.9132 11.2728 18.5506 11.7288 18.1724 12.2026C17.5465 12.9867 16.6008 13.4872 15.7497 13.7906C14.8679 14.105 13.8865 14.2795 13 14.2795H12C10.6768 14.2795 9.46929 14.9457 8.54321 16.2031C7.60671 17.4747 7 19.3153 7 21.4372H5.5H4C4 18.7731 4.7572 16.2848 6.12765 14.4241C7.50853 12.5492 9.55102 11.2795 12 11.2795H13C13.5241 11.2795 14.1654 11.1705 14.7424 10.9648C15.3499 10.7482 15.6989 10.4925 15.8276 10.3312C16.1823 9.88678 16.5337 9.44499 16.8088 9.09913C17.1035 8.72861 17.3106 8.46821 17.3404 8.4327C17.7536 7.93996 18.3562 7.23779 19.0795 6.65927ZM17 46.5L17.0001 45H37.9998C42.7199 45 44.8803 43.9118 46.5045 42.1753C47.1628 41.4716 47.7391 40.4801 48.2321 39.3845C48.583 38.6048 48.788 37.5447 48.8949 36.4757C48.9994 35.4308 49 34.4949 49 34V21.4372C49 21.4372 49 21.4372 50.5 21.4372C52 21.4372 52 21.4372 52 21.4372V34.0069C52 34.5148 52 35.5747 51.8801 36.7743C51.762 37.9553 51.517 39.3952 50.9679 40.6155C50.4144 41.8454 49.677 43.1753 48.6955 44.2247C46.3423 46.7404 43.2799 48 38 48H17.0011L17 46.5ZM7.28205 44.2019C6.26863 43.1507 5.50566 41.8554 4.97545 40.5732C4.6019 39.6699 4.37055 38.2234 4.22836 37.0383C4.08021 35.8036 4 34.5823 4 34V21.4372C4 21.4372 4 21.4372 5.5 21.4372C7 21.4372 7 21.4372 7 21.4372V34C7 34.4177 7.06642 35.5092 7.20699 36.6809C7.35352 37.9022 7.55297 38.9557 7.74776 39.4268C8.17731 40.4655 8.76584 41.4288 9.47239 42.1512L9.51886 42.1987L9.56094 42.2501C10.2258 43.0627 11.3487 43.7636 12.7516 44.2614C14.1376 44.7531 15.6678 45 17.0001 45L17 46.5V48C15.3323 48 13.4624 47.6969 11.7484 47.0886C10.0726 46.494 8.41631 45.561 7.28205 44.2019Z" fill="black"/>
<path fill-rule="evenodd" clip-rule="evenodd" d="M18 28C18 22.4767 22.4767 18 28 18C33.5233 18 38 22.4767 38 28C38 33.5233 33.5233 38 28 38C22.4767 38 18 33.5233 18 28ZM28 21C24.1335 21 21 24.1335 21 28C21 31.8665 24.1335 35 28 35C31.8665 35 35 31.8665 35 28C35 24.1335 31.8665 21 28 21Z" fill="black"/>
</g>
<defs>
<clipPath id="clip0">
<rect width="56" height="56" fill="white"/>
</clipPath>
</defs>
</svg>
